X: 1
T: Miss Drummond of Megginch
O: Wighton Collection
Z: John Chambers <jc:trillian.mit.edu>
R: strathspey
M: 4/4
L: 1/8
K: C
   e | "C"c-<G A-<G c-<G A>G | E-<G c>E "G7"D-<d d>e \
     | "C"c-<G A-<G c-<G "(F)"c>a | g-<c "G7"g>f "C"e-<c c :|
e/f/ | "C"g-<c e-<c g-<c "(F)"a-<c | "C"g-<c f/e/d/c/ "G7"B-<d de/f/ \
     | "C"g-<c e-<c g-<c "(F)"a-<c | "C"G>c "G7"f/e/d/c/ "C"G-<c c |]
e/f/ | "C"g-<c e-<c g-<c "(F)"a-<c | "C"gc f/e/d/c/ "G7"B-<d d>e \
     | "C"c-<G B/A/G/F/ E-<G "F"c>a | "C"g-<c "G7"g>f "C"e-<c c |]
